X:1
T:Title
%%score { 1 | 2 }
L:1/8
M:6/8
K:G
V:1 treble nm="Grand Piano"
V:2 bass 
V:1
 z3 z2[Q:1/4=100] [B,D] | [B,D]2 [DB] [CA]2 [B,G] | G2 F F2 F | F2 [Fc] [Gc]2 [Ac] | %4
[M:5/8] [Ac]2 B B2 |[M:1/8] D |[M:3/4] D2 [DB] [DA]2 [DG] | G2 F F2 F | c2 c E2 F | %9
[M:5/8] [B,G]-[B,G]- [B,G]3 |[M:1/8] [Gd] |[M:3/4] [Fd]2 [DF] [DF]2 [Fc] | [Ac]2 B B2 B | %13
 B2 B [^Ge]2 [GB] |[M:5/8] [Bd]2 c c2 |[M:1/8] c |[M:3/4] [Fc]2 [FA] [Ff]2 [Ge] | [Ad]2 [Ac] B2 D | %18
 E2 [^DG] G2 F |[M:5/8] G-G- G3 |] %20
V:2
 z3 z2 [G,,G,] | [G,,G,]2 [G,,G,] [G,,G,]2 [G,,G,] | [D,B,D]2 [D,A,D] [D,A,D]2 [D,A,D] | %3
 [D,A,D]2 [D,D] [E,D]2 [F,D] |[M:5/8][K:treble] [G,D]2 [G,DG] [G,DG]2 |[M:1/8] [G,B,] | %6
[M:3/4] [G,B,]2[K:bass] [G,,G,] [A,,F,]2 [B,,G,] | [D,B,D]2 [D,A,D] [D,A,D]2 [D,A,D] | %8
 [D,F,D]2 [D,F,D] [D,A,C]2 [D,A,C] |[M:5/8] [G,,G,]-[G,,G,]- [G,,G,]3 |[M:1/8] [G,B,] | %11
[M:3/4] [D,A,]2 [D,A,] [D,A,]2 [D,D] | [G,D]2 [G,DG] [G,DG]2 [G,DG] | %13
 [G,DG]2 [G,B,G][K:bass] [E,B,]2 [E,E] |[M:5/8][K:treble] [A,E]2 [A,EA] [A,EA]2 |[M:1/8] [A,EA] | %16
[M:3/4][K:bass] [D,D]2 [D,D] [D,C]2 [E,C] | [F,C]2 [D,D][K:treble] [G,DG]2 [G,B,] | %18
 [C,G,C]2 [C,A,] [D,B,D]2 [D,CD] |[M:5/8] [G,B,D]-[G,B,D]- [G,B,D]3 |] %20

